X:494
T:y Delyn Newydd
T:the New Harp
M:2/4
L:1/8
K:D
|: FEDE F2 A2 | A2 G2 G4 | GFEF G2 B2 | B2 A2 A4 |
FEDE F2 A2 | A2 G2 G4 | GF E2 GF E2 | F2 D2 D4 :|
|: d2 c2 B2 A2 | d2 c2 B2 A2 | d2 c2 B2 A2 | GG F2 E4 |
c2 BB A4 | c2 BB A4 | c2 BB A2 GG | F2 E2 D4 :|
